Hatter-kde/actions/32/color-picker-black.svg

<svg xmlns="http://www.w3.org/2000/svg" viewBox="0 0 32 32">
  <defs
     id="defs3051">
    <style
       type="text/css"
       id="current-color-scheme">
      .ColorScheme-Text {
        color:#363636;
      }
      </style>
  </defs>
  <path
     style="fill:currentColor;fill-opacity:1;stroke:none" 
     d="M 13.494141 3.9941406 C 12.034641 9.1016406 8.4636719 13.493766 6.8886719 17.009766 C 6.3381719 18.055266 5.9941406 19.226641 5.9941406 20.494141 C 5.9941406 24.649141 9.3391406 27.994141 13.494141 27.994141 C 17.649141 27.994141 20.994141 24.649141 20.994141 20.494141 C 20.994141 19.226641 20.653562 18.055266 20.101562 17.009766 C 18.526563 13.495266 14.953641 9.1016406 13.494141 3.9941406 z M 23.5 4 C 21.007 4 19 6.007 19 8.5 C 19 10.993 21.007 13 23.5 13 C 25.993 13 28 10.993 28 8.5 C 28 6.007 25.993 4 23.5 4 z M 16.919922 15.570312 C 18.476922 16.651812 19.494141 18.446641 19.494141 20.494141 C 19.494141 23.818141 16.818141 26.494141 13.494141 26.494141 C 11.446641 26.494141 9.6518125 25.476922 8.5703125 23.919922 C 9.5408125 24.594922 10.717641 24.994141 11.994141 24.994141 C 15.318141 24.994141 17.994141 22.318141 17.994141 18.994141 C 17.994141 17.717641 17.594922 16.540813 16.919922 15.570312 z "
     id="path38" 
     class="ColorScheme-Text"
     />
  <rect
     id="rect42"
     height="7"
     rx="3.5"
     y="4.9999876"
     x="20.000008"
     width="7" />
</svg>

<?xml version="1.0" encoding="UTF-8"?>
<svg viewBox="0 0 32 32" xmlns="http://www.w3.org/2000/svg">
 <defs id="defs3051">
  <style id="current-color-scheme" type="text/css">.ColorScheme-Text {
        color:#363636;
      }</style>
 </defs>
 <path id="path38" class="ColorScheme-Text" d="m13.494 3.9941c-1.4595 5.1075-5.0305 9.4996-6.6055 13.016-0.5505 1.0455-0.89453 2.2169-0.89453 3.4844 0 4.155 3.345 7.5 7.5 7.5 4.155 0 7.5-3.345 7.5-7.5 0-1.2675-0.34058-2.4389-0.89258-3.4844-1.575-3.5145-5.1479-7.9081-6.6074-13.016zm10.006 0.0058594c-2.493 0-4.5 2.007-4.5 4.5s2.007 4.5 4.5 4.5 4.5-2.007 4.5-4.5-2.007-4.5-4.5-4.5zm-6.5801 11.57c1.557 1.0815 2.5742 2.8763 2.5742 4.9238 0 3.324-2.676 6-6 6-2.0475 0-3.8423-1.0172-4.9238-2.5742 0.9705 0.675 2.1473 1.0742 3.4238 1.0742 3.324 0 6-2.676 6-6 0-1.2765-0.39922-2.4533-1.0742-3.4238z" fill="currentColor"/>
 <rect id="rect42" x="20" y="5" width="7" height="7" rx="3.5"/>
</svg>
